polaris-icons/icons/new-icons/PopularMajor.svg

<svg width="20" height="20" viewBox="0 0 20 20" fill="none" xmlns="http://www.w3.org/2000/svg">
<path fill-rule="evenodd" clip-rule="evenodd" d="M14.4519 3.50005L14.5 3.5001L14.5481 3.50005C14.73 3.49978 14.9193 3.49949 15.0914 3.53372C15.7856 3.67181 16.3283 4.21448 16.4664 4.90869C16.5006 5.08077 16.5003 5.27008 16.5001 5.452V14.5482C16.5003 14.7301 16.5006 14.9194 16.4664 15.0915C16.3283 15.7857 15.7856 16.3284 15.0914 16.4665C14.9193 16.5007 14.73 16.5004 14.5481 16.5001L14.5 16.5001L14.4519 16.5001C14.27 16.5004 14.0807 16.5007 13.9086 16.4665C13.2144 16.3284 12.6717 15.7857 12.5336 15.0915C12.4994 14.9194 12.4997 14.7301 12.5 14.5482V5.45199C12.4997 5.27008 12.4994 5.08077 12.5336 4.90869C12.6717 4.21448 13.2144 3.67181 13.9086 3.53372C14.0807 3.49949 14.27 3.49978 14.4519 3.50005ZM14.1993 5.00529C14.1017 5.02551 14.0254 5.10179 14.0052 5.19938C14.0048 5.20301 14.0031 5.21792 14.002 5.25231C14.0001 5.30666 14 5.37885 14 5.5001V14.5001C14 14.6213 14.0001 14.6935 14.002 14.7479C14.0031 14.7823 14.0048 14.7972 14.0052 14.8008C14.0254 14.8984 14.1017 14.9747 14.1993 14.9949C14.2029 14.9953 14.2178 14.997 14.2522 14.9981C14.3066 15 14.3788 15.0001 14.5 15.0001C14.6213 15.0001 14.6934 15 14.7478 14.9981C14.7822 14.997 14.7971 14.9953 14.8007 14.9949C14.8983 14.9747 14.9746 14.8984 14.9948 14.8008C14.9953 14.7972 14.9969 14.7823 14.998 14.7479C14.9999 14.6935 15 14.6213 15 14.5001V5.5001C15 5.37885 14.9999 5.30666 14.998 5.25231C14.9969 5.21792 14.9953 5.20301 14.9948 5.19938C14.9746 5.10179 14.8983 5.02551 14.8007 5.00529C14.7971 5.00485 14.7822 5.00324 14.7478 5.00206C14.6934 5.0002 14.6213 5.0001 14.5 5.0001C14.3788 5.0001 14.3066 5.0002 14.2522 5.00206C14.2178 5.00324 14.2029 5.00485 14.1993 5.00529Z" fill="#4A4A4A"/>
<path fill-rule="evenodd" clip-rule="evenodd" d="M5.4519 9.00005L5.50001 9.0001L5.54811 9.00005C5.73002 8.99978 5.91933 8.99949 6.09141 9.03372C6.78562 9.17181 7.32829 9.71448 7.46638 10.4087C7.50061 10.5808 7.50033 10.7701 7.50005 10.952L7.50001 11.0001V14.5001L7.50005 14.5482C7.50033 14.7301 7.50061 14.9194 7.46638 15.0915C7.32829 15.7857 6.78562 16.3284 6.09141 16.4665C5.91933 16.5007 5.73002 16.5004 5.54811 16.5001L5.50001 16.5001L5.4519 16.5001C5.26999 16.5004 5.08068 16.5007 4.9086 16.4665C4.21439 16.3284 3.67172 15.7857 3.53363 15.0915C3.4994 14.9194 3.49968 14.7301 3.49996 14.5482V10.952C3.49968 10.7701 3.4994 10.5808 3.53363 10.4087C3.67172 9.71448 4.21439 9.17181 4.9086 9.03372C5.08068 8.99949 5.26999 8.99978 5.4519 9.00005ZM5.19929 10.5053C5.1017 10.5255 5.02541 10.6018 5.0052 10.6994C5.00476 10.703 5.00315 10.7179 5.00197 10.7523C5.00011 10.8067 5.00001 10.8788 5.00001 11.0001V14.5001C5.00001 14.6213 5.00011 14.6935 5.00197 14.7479C5.00315 14.7823 5.00476 14.7972 5.0052 14.8008C5.02541 14.8984 5.10169 14.9747 5.19929 14.9949C5.20291 14.9953 5.21782 14.997 5.25222 14.9981C5.30657 15 5.37875 15.0001 5.50001 15.0001C5.62126 15.0001 5.69344 15 5.74779 14.9981C5.78219 14.997 5.7971 14.9953 5.80072 14.9949C5.89831 14.9747 5.97459 14.8984 5.99481 14.8008C5.99525 14.7972 5.99686 14.7823 5.99804 14.7479C5.9999 14.6935 6.00001 14.6213 6.00001 14.5001V11.0001C6.00001 10.8788 5.9999 10.8067 5.99804 10.7523C5.99686 10.7179 5.99525 10.703 5.99481 10.6994C5.9746 10.6018 5.89831 10.5255 5.80072 10.5053C5.7971 10.5048 5.78219 10.5032 5.74779 10.5021C5.69344 10.5002 5.62126 10.5001 5.50001 10.5001C5.37875 10.5001 5.30657 10.5002 5.25222 10.5021C5.21782 10.5032 5.20291 10.5048 5.19929 10.5053Z" fill="#4A4A4A"/>
<path fill-rule="evenodd" clip-rule="evenodd" d="M10 6.0001L9.9519 6.00005C9.76999 5.99978 9.58068 5.99949 9.4086 6.03372C8.71439 6.17181 8.17172 6.71448 8.03363 7.40869C7.9994 7.58077 7.99968 7.77008 7.99996 7.95199L8.00001 8.0001V14.5001L7.99996 14.5482C7.99968 14.7301 7.9994 14.9194 8.03363 15.0915C8.17172 15.7857 8.71439 16.3284 9.4086 16.4665C9.58068 16.5007 9.76999 16.5004 9.9519 16.5001L10 16.5001L10.0481 16.5001C10.23 16.5004 10.4193 16.5007 10.5914 16.4665C11.2856 16.3284 11.8283 15.7857 11.9664 15.0915C12.0006 14.9194 12.0003 14.7301 12.0001 14.5482V7.952C12.0003 7.77008 12.0006 7.58077 11.9664 7.40869C11.8283 6.71448 11.2856 6.17181 10.5914 6.03372C10.4193 5.99949 10.23 5.99978 10.0481 6.00005L10 6.0001ZM9.5052 7.69938C9.52542 7.60179 9.6017 7.52551 9.69929 7.50529C9.70291 7.50485 9.71782 7.50324 9.75222 7.50206C9.80657 7.5002 9.87876 7.5001 10 7.5001C10.1213 7.5001 10.1934 7.5002 10.2478 7.50206C10.2822 7.50324 10.2971 7.50485 10.3007 7.50529C10.3983 7.52551 10.4746 7.60179 10.4948 7.69939C10.4953 7.70301 10.4969 7.71792 10.498 7.75231C10.4999 7.80666 10.5 7.87885 10.5 8.0001V14.5001C10.5 14.6213 10.4999 14.6935 10.498 14.7479C10.4969 14.7823 10.4953 14.7972 10.4948 14.8008C10.4746 14.8984 10.3983 14.9747 10.3007 14.9949C10.2971 14.9953 10.2822 14.997 10.2478 14.9981C10.1934 15 10.1213 15.0001 10 15.0001C9.87876 15.0001 9.80657 15 9.75222 14.9981C9.71783 14.997 9.70291 14.9953 9.69929 14.9949C9.6017 14.9747 9.52542 14.8984 9.5052 14.8008C9.50476 14.7972 9.50315 14.7823 9.50197 14.7479C9.50011 14.6935 9.50001 14.6213 9.50001 14.5001V8.0001C9.50001 7.87885 9.50011 7.80666 9.50197 7.75231C9.50315 7.71792 9.50476 7.70301 9.5052 7.69938L9.50481 7.70132C9.50514 7.69965 9.50518 7.69952 9.5052 7.69938Z" fill="#4A4A4A"/>
</svg>

<svg viewBox="0 0 20 20" xmlns="http://www.w3.org/2000/svg"><path fill-rule="evenodd" d="M14.452 3.5h.096c.182 0 .371 0 .543.034a1.75 1.75 0 0 1 1.375 1.375c.035.172.034.361.034.543v9.096c0 .182 0 .371-.034.543a1.75 1.75 0 0 1-1.375 1.376 2.825 2.825 0 0 1-.543.033h-.096c-.182 0-.371 0-.543-.034a1.75 1.75 0 0 1-1.375-1.375 2.825 2.825 0 0 1-.034-.543v-9.096c0-.182 0-.371.034-.543a1.75 1.75 0 0 1 1.375-1.375c.172-.035.361-.034.543-.034Zm-.253 1.505a.25.25 0 0 0-.194.194l-.003.053a8.046 8.046 0 0 0-.002.248v9c0 .121 0 .194.002.248l.003.053a.25.25 0 0 0 .194.194l.053.003c.055.002.127.002.248.002s.193 0 .248-.002l.053-.003a.25.25 0 0 0 .194-.194l.003-.053a8.05 8.05 0 0 0 .002-.248v-9a8.046 8.046 0 0 0-.005-.3.25.25 0 0 0-.194-.195 8.217 8.217 0 0 0-.3-.005 8.221 8.221 0 0 0-.302.005Z" fill="#5C5F62"/><path fill-rule="evenodd" d="M5.452 9h.096c.182 0 .371 0 .543.034a1.75 1.75 0 0 1 1.375 1.375c.035.172.034.361.034.543v3.596c0 .182 0 .371-.034.543a1.75 1.75 0 0 1-1.375 1.376 2.825 2.825 0 0 1-.543.033h-.096c-.182 0-.371 0-.543-.034a1.75 1.75 0 0 1-1.375-1.375 2.824 2.824 0 0 1-.034-.543v-3.596c0-.182 0-.371.034-.543a1.75 1.75 0 0 1 1.375-1.375c.172-.035.361-.034.543-.034Zm-.253 1.505a.25.25 0 0 0-.194.194 8.217 8.217 0 0 0-.005.3v3.501a8.221 8.221 0 0 0 .005.3.25.25 0 0 0 .194.195l.053.003c.055.002.127.002.248.002s.193 0 .248-.002l.053-.003a.25.25 0 0 0 .194-.194l.003-.053c.002-.054.002-.127.002-.248v-3.5a8.208 8.208 0 0 0-.005-.3.25.25 0 0 0-.194-.195 8.045 8.045 0 0 0-.3-.005 8.045 8.045 0 0 0-.302.005Z" fill="#5C5F62"/><path fill-rule="evenodd" d="M10 6h-.048c-.182 0-.371 0-.543.034a1.75 1.75 0 0 0-1.375 1.375 2.824 2.824 0 0 0-.034.543v6.596c0 .182 0 .371.034.543a1.75 1.75 0 0 0 1.375 1.376c.172.034.361.033.543.033h.096c.182 0 .371 0 .543-.034a1.75 1.75 0 0 0 1.375-1.375c.035-.172.034-.36.034-.543v-6.596c0-.182 0-.371-.034-.543a1.75 1.75 0 0 0-1.375-1.375c-.172-.035-.361-.034-.543-.034h-.048Zm-.495 1.7a.25.25 0 0 1 .194-.195 8.216 8.216 0 0 1 .3-.005 8.217 8.217 0 0 1 .302.005.25.25 0 0 1 .194.194l.003.053c.002.055.002.127.002.248v6.5a8.05 8.05 0 0 1-.005.3.25.25 0 0 1-.194.195l-.053.003a8.046 8.046 0 0 1-.248.002c-.121 0-.193 0-.248-.002l-.053-.003a.25.25 0 0 1-.194-.194 8.221 8.221 0 0 1-.005-.3v-6.5a8.217 8.217 0 0 1 .005-.302v.002-.002Z" fill="#5C5F62"/></svg>
